packages/astro-components-stencil/src/icons/settings-cell.svg

<svg xmlns="http://www.w3.org/2000/svg" viewBox="0 0 24 24"><g xmlns="http://www.w3.org/2000/svg" id="settings-cell" fill-rule="nonzero">
            <path d="M7 24h2v-2H7v2zm4 0h2v-2h-2v2zm4 0h2v-2h-2v2zM16 .01L8 0C6.9 0 6 .9 6 2v16c0 1.1.9 2 2 2h8c1.1 0 2-.9 2-2V2c0-1.1-.9-1.99-2-1.99zM16 16H8V4h8v12z"/>
        </g></svg>

<svg width="24" height="24" viewBox="0 0 24 24" fill="none" xmlns="http://www.w3.org/2000/svg">
<path fill-rule="evenodd" clip-rule="evenodd" d="M16 0.01L8 0C6.9 0 6 0.9 6 2V18C6 19.1 6.9 20 8 20H16C17.1 20 18 19.1 18 18V2C18 0.9 17.1 0.01 16 0.01ZM9 24V22H7V24H9ZM11 24H13V22H11V24ZM15 24V22H17V24H15ZM8 16H16V4H8V16Z" fill="black"/>
</svg>
